img/illustrations/Services_are_included_in_the_established_list.svg

<svg width="145" height="145" viewBox="0 0 145 145" fill="none" xmlns="http://www.w3.org/2000/svg">
<path d="M112.69 33.91H71.7998C68.9224 33.91 66.5898 36.2426 66.5898 39.12V104.83C66.5898 107.707 68.9224 110.04 71.7998 110.04H112.69C115.567 110.04 117.9 107.707 117.9 104.83V39.12C117.9 36.2426 115.567 33.91 112.69 33.91Z" fill="white"/>
<path d="M107.71 33.91C107.71 33.91 108.71 46.42 112.92 49.55C115.92 51.81 117.66 60.35 117.92 61.21C118.18 62.07 117.26 36.58 117.26 36.58L115.53 34.74L108.95 33.42L107.71 33.91Z" fill="#EBEBEB"/>
<path d="M117.9 89.54V104.82C117.9 106.204 117.35 107.532 116.371 108.511C115.392 109.49 114.064 110.04 112.68 110.04H71.7998C70.4171 110.037 69.092 109.486 68.1152 108.508C67.1384 107.529 66.5898 106.203 66.5898 104.82V39.12C66.5898 37.7382 67.1388 36.413 68.1158 35.436C69.0929 34.4589 70.4181 33.91 71.7998 33.91H112.68C114.063 33.91 115.389 34.4586 116.367 35.4354C117.346 36.4121 117.897 37.7373 117.9 39.12V83" stroke="#007B64" stroke-width="2" stroke-linecap="round" stroke-linejoin="round"/>
<path d="M44.27 78V29.21C44.27 27.8282 44.8189 26.503 45.796 25.526C46.7731 24.5489 48.0982 24 49.48 24H103.71C105.093 24 106.419 24.5486 107.398 25.5254C108.376 26.5021 108.927 27.8273 108.93 29.21V114.73C108.93 116.114 108.38 117.442 107.401 118.421C106.422 119.4 105.094 119.95 103.71 119.95H49.48C48.0973 119.947 46.7722 119.396 45.7954 118.418C44.8186 117.439 44.27 116.113 44.27 114.73V93.53" fill="white"/>
<path d="M44.27 83V29.21C44.27 27.8282 44.8189 26.503 45.796 25.526C46.7731 24.5489 48.0982 24 49.48 24H103.71C105.093 24 106.419 24.5486 107.398 25.5254C108.376 26.5021 108.927 27.8273 108.93 29.21V82.86" stroke="#007B64" stroke-width="2.09" stroke-linecap="round" stroke-linejoin="round"/>
<path d="M108.93 90.21V114.73C108.93 116.114 108.38 117.442 107.401 118.421C106.422 119.4 105.094 119.95 103.71 119.95H49.48C48.0973 119.947 46.7722 119.396 45.7954 118.418C44.8186 117.439 44.27 116.113 44.27 114.73V92.73" stroke="#007B64" stroke-width="2.09" stroke-linecap="round" stroke-linejoin="round"/>
<path d="M98.4899 31.82H54.6999C53.5456 31.82 52.6099 32.7557 52.6099 33.91V43.29C52.6099 44.4443 53.5456 45.38 54.6999 45.38H98.4899C99.6441 45.38 100.58 44.4443 100.58 43.29V33.91C100.58 32.7557 99.6441 31.82 98.4899 31.82Z" fill="#FFC463"/>
<path d="M53.7598 51.9H97.5598" stroke="#007B64" stroke-width="2" stroke-linecap="round" stroke-linejoin="round"/>
<path d="M53.7598 58.81H98.1298" stroke="#007B64" stroke-width="2" stroke-linecap="round" stroke-linejoin="round"/>
<path d="M53.7598 65.73H98.1298" stroke="#007B64" stroke-width="2" stroke-linecap="round" stroke-linejoin="round"/>
<path d="M24.5698 121.03H140" stroke="#007B64" stroke-width="2" stroke-linecap="round" stroke-linejoin="round"/>
<path d="M5 121.03H15.04" stroke="#007B64" stroke-width="2" stroke-linecap="round" stroke-linejoin="round"/>
<path d="M93.8599 93.39H66.6199L65.6199 92.39L60.1299 88H38.1299V121H123.42L124.13 88H100.13L93.8599 93.39Z" fill="white"/>
<path d="M83.4902 121C83.4902 121 92.1202 112.21 102.95 113.42C113.78 114.63 123.12 112.77 123.95 105.69V121H83.4902Z" fill="#EBEBEB"/>
<path d="M39.3799 87.94H46.5399H60.9499L66.6199 93.39H93.8499L99.9399 87.94H123.9V121.03H37.1099V87.94H40.3099" stroke="#007B64" stroke-width="2" stroke-linecap="round" stroke-linejoin="round"/>
<path d="M116.02 101.06C116.255 101.468 116.379 101.93 116.38 102.4V110.72C116.38 111.444 116.092 112.138 115.58 112.65C115.068 113.162 114.374 113.45 113.65 113.45H47.7798C47.0558 113.45 46.3614 113.162 45.8494 112.65C45.3374 112.138 45.0498 111.444 45.0498 110.72V102.4C45.0498 102.042 45.1205 101.687 45.2578 101.357C45.3951 101.026 45.5964 100.726 45.85 100.473C46.1036 100.22 46.4047 100.02 46.7358 99.8842C47.067 99.7481 47.4218 99.6787 47.7798 99.68H110.13" stroke="#007B64" stroke-width="2" stroke-linecap="round" stroke-linejoin="round"/>
</svg>

<svg width="145" height="145" fill="none" xmlns="http://www.w3.org/2000/svg"><path d="M112.69 33.91H71.8a5.21 5.21 0 00-5.21 5.21v65.71a5.21 5.21 0 005.21 5.21h40.89a5.21 5.21 0 005.21-5.21V39.12a5.21 5.21 0 00-5.21-5.21z" fill="#fff"/><path d="M107.71 33.91s1 12.51 5.21 15.64c3 2.26 4.74 10.8 5 11.66.26.86-.66-24.63-.66-24.63l-1.73-1.84-6.58-1.32-1.24.49z" fill="#EBEBEB"/><path d="M117.9 89.54v15.28a5.22 5.22 0 01-5.22 5.22H71.8a5.221 5.221 0 01-5.21-5.22v-65.7a5.21 5.21 0 015.21-5.21h40.88a5.217 5.217 0 015.22 5.21V83" stroke="#007B64" stroke-width="2" stroke-linecap="round" stroke-linejoin="round"/><path d="M44.27 78V29.21A5.21 5.21 0 0149.48 24h54.23a5.221 5.221 0 015.22 5.21v85.52a5.22 5.22 0 01-5.22 5.22H49.48a5.221 5.221 0 01-5.21-5.22v-21.2" fill="#fff"/><path d="M44.27 83V29.21A5.21 5.21 0 0149.48 24h54.23a5.221 5.221 0 015.22 5.21v53.65m0 7.35v24.52a5.22 5.22 0 01-5.22 5.22H49.48a5.221 5.221 0 01-5.21-5.22v-22" stroke="#007B64" stroke-width="2.09" stroke-linecap="round" stroke-linejoin="round"/><path d="M98.49 31.82H54.7a2.09 2.09 0 00-2.09 2.09v9.38a2.09 2.09 0 002.09 2.09h43.79a2.09 2.09 0 002.09-2.09v-9.38a2.09 2.09 0 00-2.09-2.09z" fill="#FFC463"/><path d="M53.76 51.9h43.8m-43.8 6.91h44.37m-44.37 6.92h44.37m-73.56 55.3H140m-135 0h10.04" stroke="#007B64" stroke-width="2" stroke-linecap="round" stroke-linejoin="round"/><path d="M93.86 93.39H66.62l-1-1L60.13 88h-22v33h85.29l.71-33h-24l-6.27 5.39z" fill="#fff"/><path d="M83.49 121s8.63-8.79 19.46-7.58c10.83 1.21 20.17-.65 21-7.73V121H83.49z" fill="#EBEBEB"/><path d="M39.38 87.94h21.57l5.67 5.45h27.23l6.09-5.45h23.96v33.09H37.11V87.94h3.2" stroke="#007B64" stroke-width="2" stroke-linecap="round" stroke-linejoin="round"/><path d="M116.02 101.06c.235.408.359.87.36 1.34v8.32a2.73 2.73 0 01-2.73 2.73H47.78a2.73 2.73 0 01-2.73-2.73v-8.32a2.717 2.717 0 011.686-2.516 2.72 2.72 0 011.044-.204h62.35" stroke="#007B64" stroke-width="2" stroke-linecap="round" stroke-linejoin="round"/></svg>
